X:158
T: Cai cha deng
N: C0264
O: China,Fujian, Longyan
S: II, 570]
N: 2 Abschnitte mit verschiedenen Grundtoenen!
N: Man singt und tanzt. Haelt dabei in der einen Hand einen
N: schoenen Korb, in der anderen einen Faecher.
N: Dieses Lied besteht aus 2 Teilen: Teil 1, Strophe 1-4) Phrasen 1-6,
N: Teil 2, Strophen 5-8) Phrasen 7-10. Vor-, Zwischen- und Nachspiele
N: weggelassen. +++ Grundton wechselt von D nach G!! +++ Zhuandiao:
N: e SHANG - e YU
R: Wuge, Caicha. Xin minge]
M: 2/4
L: 1/16
K: D
B4A4 | F2A2B2A2 | B3AB4 |
B3dA4 | F2B2A2E2 | F3EF4 |
B3dA4 | F2A2B2A2 | B3AB4 |
B3dA4 | F2B2A2E2 | F3EF4 |
B3AB4 | F2E2F4 |
F2A2F2A2- | A2F4E2 | D2B,4D2 | E8 |
B2B2d2BA | G2B2A4 | d2BAG2EG | A8 |
G2B2A4 | G2E2G2AG | E8 |
G2E2G2A2 | B8 | d2BAG2EG | A8 |
G2B2A4 | G2E2G2AG | E8

@@@ Tune index: 6159
